128/places/user-bookmarks.svg

<?xml version="1.0" encoding="UTF-8" standalone="no"?>
<!-- Created with Inkscape (http://www.inkscape.org/) -->

<svg
   xmlns:dc="http://purl.org/dc/elements/1.1/"
   xmlns:cc="http://creativecommons.org/ns#"
   xmlns:rdf="http://www.w3.org/1999/02/22-rdf-syntax-ns#"
   xmlns:svg="http://www.w3.org/2000/svg"
   xmlns="http://www.w3.org/2000/svg"
   xmlns:xlink="http://www.w3.org/1999/xlink"
   xmlns:sodipodi="http://sodipodi.sourceforge.net/DTD/sodipodi-0.dtd"
   xmlns:inkscape="http://www.inkscape.org/namespaces/inkscape"
   width="128"
   height="128"
   viewBox="0 0 33.866667 33.866667"
   version="1.1"
   id="svg2634"
   inkscape:version="0.92.4 5da689c313, 2019-01-14"
   sodipodi:docname="user-bookmarks.svg">
  <title
     id="title3250">Boston Icons</title>
  <defs
     id="defs2628">
    <linearGradient
       inkscape:collect="always"
       xlink:href="#linearGradient1027"
       id="linearGradient1029"
       x1="99.48333"
       y1="170"
       x2="99.48333"
       y2="155.18333"
       gradientUnits="userSpaceOnUse"
       gradientTransform="translate(2.7000007e-7,1.292875e-5)" />
    <linearGradient
       inkscape:collect="always"
       id="linearGradient1027">
      <stop
         style="stop-color:#2d8cff;stop-opacity:1"
         offset="0"
         id="stop1023" />
      <stop
         style="stop-color:#2d8cff;stop-opacity:0"
         offset="1"
         id="stop1025" />
    </linearGradient>
  </defs>
  <sodipodi:namedview
     id="base"
     pagecolor="#ffffff"
     bordercolor="#00ffed"
     borderopacity="1"
     inkscape:pageopacity="1"
     inkscape:pageshadow="2"
     inkscape:zoom="5.6"
     inkscape:cx="65.944586"
     inkscape:cy="49.88121"
     inkscape:document-units="px"
     inkscape:current-layer="layer1"
     showgrid="false"
     showguides="false"
     inkscape:guide-bbox="true"
     fit-margin-top="0"
     fit-margin-left="0"
     fit-margin-right="0"
     fit-margin-bottom="0"
     inkscape:window-width="1920"
     inkscape:window-height="1016"
     inkscape:window-x="0"
     inkscape:window-y="27"
     inkscape:window-maximized="1"
     units="px"
     inkscape:lockguides="true">
    <inkscape:grid
       type="xygrid"
       id="grid3182"
       spacingx="0.52916667"
       spacingy="0.52916667"
       empspacing="4"
       originx="-82.550004"
       originy="-127.00001"
       dotted="false" />
    <sodipodi:guide
       position="-4.268358e-06,27.516666"
       orientation="1,0"
       id="guide3216"
       inkscape:locked="true" />
    <sodipodi:guide
       position="3.7041618,33.866666"
       orientation="0,1"
       id="guide3218"
       inkscape:locked="true" />
    <sodipodi:guide
       position="33.866657,24.870836"
       orientation="1,0"
       id="guide3220"
       inkscape:locked="true" />
    <sodipodi:guide
       position="32.279157,-4.1479283e-06"
       orientation="0,1"
       id="guide3222"
       inkscape:locked="true" />
    <sodipodi:guide
       position="15.345829,32.808336"
       orientation="0,1"
       id="guide3224"
       inkscape:locked="true" />
    <sodipodi:guide
       position="-4.7625023,1.0583259"
       orientation="0,1"
       id="guide3226"
       inkscape:locked="true" />
    <sodipodi:guide
       position="1.0583287,17.462496"
       orientation="1,0"
       id="guide3228"
       inkscape:locked="true" />
    <sodipodi:guide
       position="32.808327,20.108336"
       orientation="1,0"
       id="guide3230"
       inkscape:locked="true" />
    <sodipodi:guide
       position="15.874995,31.750006"
       orientation="0,1"
       id="guide3232"
       inkscape:locked="true" />
    <sodipodi:guide
       position="2.1166617,24.870836"
       orientation="1,0"
       id="guide3234"
       inkscape:locked="true" />
    <sodipodi:guide
       position="3.1749958,25.400006"
       orientation="1,0"
       id="guide3236"
       inkscape:locked="true" />
    <sodipodi:guide
       position="5.2916633,15.345824"
       orientation="1,0"
       id="guide3238"
       inkscape:locked="true" />
    <sodipodi:guide
       position="28.574997,25.400006"
       orientation="1,0"
       id="guide3240"
       inkscape:locked="true" />
    <sodipodi:guide
       position="30.691657,24.341666"
       orientation="1,0"
       id="guide3242"
       inkscape:locked="true" />
    <sodipodi:guide
       position="31.749997,21.695836"
       orientation="1,0"
       id="guide3244"
       inkscape:locked="true" />
    <sodipodi:guide
       position="21.695827,2.1166659"
       orientation="0,1"
       id="guide3246"
       inkscape:locked="true" />
    <sodipodi:guide
       position="16.404162,3.1749959"
       orientation="0,1"
       id="guide3248"
       inkscape:locked="true" />
    <sodipodi:guide
       position="26.987497,30.162491"
       orientation="0,1"
       id="guide843"
       inkscape:locked="true" />
    <sodipodi:guide
       position="30.162497,26.458325"
       orientation="0,1"
       id="guide845"
       inkscape:locked="true" />
    <sodipodi:guide
       position="17.991663,17.462491"
       orientation="0,1"
       id="guide858"
       inkscape:locked="true" />
    <sodipodi:guide
       position="16.93333,10.054158"
       orientation="0,1"
       id="guide860"
       inkscape:locked="true" />
    <sodipodi:guide
       position="11.112497,19.579158"
       orientation="0,1"
       id="guide864"
       inkscape:locked="true" />
  </sodipodi:namedview>
  <metadata
     id="metadata2631">
    <rdf:RDF>
      <cc:Work
         rdf:about="">
        <dc:format>image/svg+xml</dc:format>
        <dc:type
           rdf:resource="http://purl.org/dc/dcmitype/StillImage" />
        <dc:title>Boston Icons</dc:title>
        <cc:license
           rdf:resource="dribbble.com/chrisdiaz" />
        <dc:creator>
          <cc:Agent>
            <dc:title>Christian Díaz</dc:title>
          </cc:Agent>
        </dc:creator>
        <dc:date>2019</dc:date>
        <dc:publisher>
          <cc:Agent>
            <dc:title>Christian Díaz</dc:title>
          </cc:Agent>
        </dc:publisher>
        <dc:identifier>christiandiaz.design [at] gmail [dot] com</dc:identifier>
        <dc:subject>
          <rdf:Bag>
            <rdf:li>GNOME icon Theme</rdf:li>
          </rdf:Bag>
        </dc:subject>
        <dc:description>diazchris.deviantart.com | dribbble.com/chrisdiaz</dc:description>
      </cc:Work>
    </rdf:RDF>
  </metadata>
  <g
     inkscape:label="Capa 1"
     inkscape:groupmode="layer"
     id="layer1"
     transform="translate(-82.550003,-136.13333)">
    <g
       id="g852">
      <path
         sodipodi:nodetypes="ccccccc"
         inkscape:connector-curvature="0"
         id="path957"
         d="m 83.608333,140.89583 h 12.170834 l 3.704166,2.64583 H 115.35833 V 166.825 l -31.749997,-10e-6 -10e-7,-25.4"
         style="fill:#2d8cff;stroke:none;stroke-width:0.26458335px;stroke-linecap:butt;stroke-linejoin:miter;stroke-opacity:1" />
      <path
         sodipodi:nodetypes="cccccccccccccc"
         inkscape:connector-curvature="0"
         id="path959"
         d="m 98.530836,143.54165 -3.016249,2.11668 H 83.608336 v 21.16665 h 31.750004 v -23.28333 z m 0.238125,0.52917 h 16.060209 v 22.225 H 84.137503 V 146.1875 H 95.77917 Z"
         style="fill:#2d8cff;fill-opacity:1;stroke:none;stroke-width:0.26458335px;stroke-linecap:butt;stroke-linejoin:miter;stroke-opacity:1" />
      <path
         sodipodi:nodetypes="ccccccc"
         inkscape:connector-curvature="0"
         id="path845"
         d="m 84.137499,146.18751 h 11.641667 l 2.989795,-2.11667 h 16.060209 v 22.225 H 84.137499 Z"
         style="fill:#6fb7ff;fill-opacity:1;stroke:none;stroke-width:0.26458335px;stroke-linecap:butt;stroke-linejoin:miter;stroke-opacity:1" />
      <rect
         y="155.18333"
         x="84.137497"
         height="11.1125"
         width="30.691668"
         id="rect1005"
         style="opacity:0.3;fill:url(#linearGradient1029);fill-opacity:1;stroke:none;stroke-width:0.5291667;stroke-linejoin:bevel;stroke-miterlimit:4;stroke-dasharray:none;stroke-opacity:1" />
      <path
         sodipodi:nodetypes="cccccc"
         inkscape:connector-curvature="0"
         id="path843"
         d="m 84.1375,141.42501 h 11.377086 l 3.042709,2.11666 -3.042709,2.11667 H 84.1375 Z"
         style="fill:#6fb7ff;fill-opacity:1;stroke:none;stroke-width:0.26458335px;stroke-linecap:butt;stroke-linejoin:miter;stroke-opacity:1" />
      <path
         id="path819"
         transform="matrix(0.26458334,0,0,0.26458334,82.550003,136.13333)"
         d="M 64,46 57.5,65.5 H 38 L 54.25,77.199219 47.75,98 64,85 80.25,98 73.75,77.199219 90,65.5 H 70.5 Z m 0,6.300781 5,15 h 15 l -12.5,8.998047 5,16.001953 -12.5,-10 -12.5,10 5,-16.001953 L 44,67.300781 h 15 z"
         style="fill:#2d8cff;fill-opacity:1;stroke:none;stroke-width:3.25002933px;stroke-linecap:butt;stroke-linejoin:miter;stroke-opacity:1"
         inkscape:connector-curvature="0" />
    </g>
  </g>
</svg>

<?xml version="1.0" encoding="UTF-8" standalone="no"?>
<!-- Created with Inkscape (http://www.inkscape.org/) -->

<svg
   xmlns:dc="http://purl.org/dc/elements/1.1/"
   xmlns:cc="http://creativecommons.org/ns#"
   xmlns:rdf="http://www.w3.org/1999/02/22-rdf-syntax-ns#"
   xmlns:svg="http://www.w3.org/2000/svg"
   xmlns="http://www.w3.org/2000/svg"
   xmlns:xlink="http://www.w3.org/1999/xlink"
   xmlns:sodipodi="http://sodipodi.sourceforge.net/DTD/sodipodi-0.dtd"
   xmlns:inkscape="http://www.inkscape.org/namespaces/inkscape"
   width="128"
   height="128"
   viewBox="0 0 33.866667 33.866667"
   version="1.1"
   id="svg2634"
   inkscape:version="0.92.4 5da689c313, 2019-01-14"
   sodipodi:docname="user-bookmarks.svg">
  <title
     id="title3250">Boston Icons</title>
  <defs
     id="defs2628">
    <linearGradient
       inkscape:collect="always"
       xlink:href="#linearGradient1027"
       id="linearGradient1029"
       x1="99.48333"
       y1="170"
       x2="99.48333"
       y2="155.18333"
       gradientUnits="userSpaceOnUse"
       gradientTransform="translate(2.7000007e-7,1.292875e-5)" />
    <linearGradient
       inkscape:collect="always"
       id="linearGradient1027">
      <stop
         style="stop-color:#7fb9ec;stop-opacity:1;"
         offset="0"
         id="stop1023" />
      <stop
         style="stop-color:#7fb9ec;stop-opacity:0;"
         offset="1"
         id="stop1025" />
    </linearGradient>
  </defs>
  <sodipodi:namedview
     id="base"
     pagecolor="#ffffff"
     bordercolor="#00ffed"
     borderopacity="1"
     inkscape:pageopacity="1"
     inkscape:pageshadow="2"
     inkscape:zoom="3.959798"
     inkscape:cx="-36.171195"
     inkscape:cy="11.452085"
     inkscape:document-units="px"
     inkscape:current-layer="layer1"
     showgrid="false"
     showguides="false"
     inkscape:guide-bbox="true"
     fit-margin-top="0"
     fit-margin-left="0"
     fit-margin-right="0"
     fit-margin-bottom="0"
     inkscape:window-width="1920"
     inkscape:window-height="1016"
     inkscape:window-x="0"
     inkscape:window-y="27"
     inkscape:window-maximized="1"
     units="px"
     inkscape:lockguides="true">
    <inkscape:grid
       type="xygrid"
       id="grid3182"
       spacingx="0.52916667"
       spacingy="0.52916667"
       empspacing="4"
       originx="-82.550004"
       originy="-127.00001"
       dotted="false" />
    <sodipodi:guide
       position="-4.268358e-06,27.516666"
       orientation="1,0"
       id="guide3216"
       inkscape:locked="true" />
    <sodipodi:guide
       position="3.7041618,33.866666"
       orientation="0,1"
       id="guide3218"
       inkscape:locked="true" />
    <sodipodi:guide
       position="33.866657,24.870836"
       orientation="1,0"
       id="guide3220"
       inkscape:locked="true" />
    <sodipodi:guide
       position="32.279157,-4.1479283e-06"
       orientation="0,1"
       id="guide3222"
       inkscape:locked="true" />
    <sodipodi:guide
       position="15.345829,32.808336"
       orientation="0,1"
       id="guide3224"
       inkscape:locked="true" />
    <sodipodi:guide
       position="-4.7625023,1.0583259"
       orientation="0,1"
       id="guide3226"
       inkscape:locked="true" />
    <sodipodi:guide
       position="1.0583287,17.462496"
       orientation="1,0"
       id="guide3228"
       inkscape:locked="true" />
    <sodipodi:guide
       position="32.808327,20.108336"
       orientation="1,0"
       id="guide3230"
       inkscape:locked="true" />
    <sodipodi:guide
       position="15.874995,31.750006"
       orientation="0,1"
       id="guide3232"
       inkscape:locked="true" />
    <sodipodi:guide
       position="2.1166617,24.870836"
       orientation="1,0"
       id="guide3234"
       inkscape:locked="true" />
    <sodipodi:guide
       position="3.1749958,25.400006"
       orientation="1,0"
       id="guide3236"
       inkscape:locked="true" />
    <sodipodi:guide
       position="5.2916633,15.345824"
       orientation="1,0"
       id="guide3238"
       inkscape:locked="true" />
    <sodipodi:guide
       position="28.574997,25.400006"
       orientation="1,0"
       id="guide3240"
       inkscape:locked="true" />
    <sodipodi:guide
       position="30.691657,24.341666"
       orientation="1,0"
       id="guide3242"
       inkscape:locked="true" />
    <sodipodi:guide
       position="31.749997,21.695836"
       orientation="1,0"
       id="guide3244"
       inkscape:locked="true" />
    <sodipodi:guide
       position="21.695827,2.1166659"
       orientation="0,1"
       id="guide3246"
       inkscape:locked="true" />
    <sodipodi:guide
       position="16.404162,3.1749959"
       orientation="0,1"
       id="guide3248"
       inkscape:locked="true" />
    <sodipodi:guide
       position="26.987497,30.162491"
       orientation="0,1"
       id="guide843"
       inkscape:locked="true" />
    <sodipodi:guide
       position="30.162497,26.458325"
       orientation="0,1"
       id="guide845"
       inkscape:locked="true" />
    <sodipodi:guide
       position="17.991663,17.462491"
       orientation="0,1"
       id="guide858"
       inkscape:locked="true" />
    <sodipodi:guide
       position="16.93333,10.054158"
       orientation="0,1"
       id="guide860"
       inkscape:locked="true" />
    <sodipodi:guide
       position="11.112497,19.579158"
       orientation="0,1"
       id="guide864"
       inkscape:locked="true" />
  </sodipodi:namedview>
  <metadata
     id="metadata2631">
    <rdf:RDF>
      <cc:Work
         rdf:about="">
        <dc:format>image/svg+xml</dc:format>
        <dc:type
           rdf:resource="http://purl.org/dc/dcmitype/StillImage" />
        <dc:title>Boston Icons</dc:title>
        <cc:license
           rdf:resource="dribbble.com/chrisdiaz" />
        <dc:creator>
          <cc:Agent>
            <dc:title>Christian Díaz</dc:title>
          </cc:Agent>
        </dc:creator>
        <dc:date>2019</dc:date>
        <dc:publisher>
          <cc:Agent>
            <dc:title>Christian Díaz</dc:title>
          </cc:Agent>
        </dc:publisher>
        <dc:identifier>christiandiaz.design [at] gmail [dot] com</dc:identifier>
        <dc:subject>
          <rdf:Bag>
            <rdf:li>GNOME icon Theme</rdf:li>
          </rdf:Bag>
        </dc:subject>
        <dc:description>diazchris.deviantart.com | dribbble.com/chrisdiaz</dc:description>
      </cc:Work>
    </rdf:RDF>
  </metadata>
  <g
     inkscape:label="Capa 1"
     inkscape:groupmode="layer"
     id="layer1"
     transform="translate(-82.550003,-136.13333)">
    <g
       id="g852">
      <path
         sodipodi:nodetypes="ccccccc"
         inkscape:connector-curvature="0"
         id="path957"
         d="m 83.608333,140.89583 h 12.170834 l 3.704166,2.64583 H 115.35833 V 166.825 l -31.749997,-10e-6 -10e-7,-25.4"
         style="fill:#7fb9ec;stroke:none;stroke-width:0.26458335px;stroke-linecap:butt;stroke-linejoin:miter;stroke-opacity:1" />
      <path
         sodipodi:nodetypes="cccccccccccccc"
         inkscape:connector-curvature="0"
         id="path959"
         d="m 98.530836,143.54165 -3.016249,2.11668 H 83.608336 v 21.16665 h 31.750004 v -23.28333 z m 0.238125,0.52917 h 16.060209 v 22.225 H 84.137503 V 146.1875 H 95.77917 Z"
         style="fill:#7fb9ec;fill-opacity:1;stroke:none;stroke-width:0.26458335px;stroke-linecap:butt;stroke-linejoin:miter;stroke-opacity:1" />
      <path
         sodipodi:nodetypes="ccccccc"
         inkscape:connector-curvature="0"
         id="path845"
         d="m 84.137499,146.18751 h 11.641667 l 2.989795,-2.11667 h 16.060209 v 22.225 H 84.137499 Z"
         style="fill:#b9d9f7;fill-opacity:1;stroke:none;stroke-width:0.26458335px;stroke-linecap:butt;stroke-linejoin:miter;stroke-opacity:1" />
      <rect
         y="155.18333"
         x="84.137497"
         height="11.1125"
         width="30.691668"
         id="rect1005"
         style="opacity:0.3;fill:url(#linearGradient1029);fill-opacity:1;stroke:none;stroke-width:0.5291667;stroke-linejoin:bevel;stroke-miterlimit:4;stroke-dasharray:none;stroke-opacity:1" />
      <path
         sodipodi:nodetypes="cccccc"
         inkscape:connector-curvature="0"
         id="path843"
         d="m 84.1375,141.42501 h 11.377086 l 3.042709,2.11666 -3.042709,2.11667 H 84.1375 Z"
         style="fill:#b9d9f7;fill-opacity:1;stroke:none;stroke-width:0.26458335px;stroke-linecap:butt;stroke-linejoin:miter;stroke-opacity:1" />
      <path
         id="path819"
         transform="matrix(0.26458334,0,0,0.26458334,82.550003,136.13333)"
         d="M 64 46 L 57.5 65.5 L 38 65.5 L 54.25 77.199219 L 47.75 98 L 64 85 L 80.25 98 L 73.75 77.199219 L 90 65.5 L 70.5 65.5 L 64 46 z M 64 52.300781 L 69 67.300781 L 84 67.300781 L 71.5 76.298828 L 76.5 92.300781 L 64 82.300781 L 51.5 92.300781 L 56.5 76.298828 L 44 67.300781 L 59 67.300781 L 64 52.300781 z "
         style="fill:#7fb9ec;fill-opacity:1;stroke:none;stroke-width:3.25002933px;stroke-linecap:butt;stroke-linejoin:miter;stroke-opacity:1" />
    </g>
  </g>
</svg>
